wp-content/uploads/stamp07.svg

<?xml version="1.0" encoding="UTF-8"?> <svg xmlns="http://www.w3.org/2000/svg" width="246" height="23" viewBox="0 0 246 23" fill="none"><rect width="246" height="23" rx="5" fill="#032538"></rect><path d="M11.552 14.92V13.576L17.76 11.496V11.304L11.552 9.224V7.88L18.24 10.184V12.616L11.552 14.92ZM32.2978 12.392V17H30.9538V5.8H34.9538C35.5298 5.8 36.0311 5.88533 36.4578 6.056C36.8844 6.216 37.2364 6.43467 37.5138 6.712C37.8018 6.98933 38.0151 7.31467 38.1538 7.688C38.3031 8.05067 38.3778 8.43467 38.3778 8.84V9.32C38.3778 9.72533 38.3031 10.1147 38.1538 10.488C38.0151 10.8613 37.8018 11.192 37.5138 11.48C37.2258 11.7573 36.8684 11.9813 36.4418 12.152C36.0151 12.312 35.5191 12.392 34.9538 12.392H32.2978ZM32.2978 11.144H34.7938C36.2871 11.144 37.0338 10.504 37.0338 9.224V8.936C37.0338 8.37067 36.8471 7.91733 36.4738 7.576C36.1111 7.224 35.5511 7.048 34.7938 7.048H32.2978V11.144ZM40.8946 5.8H47.6786V7.048H42.2386V10.76H47.5826V12.008H42.2386V15.752H47.7746V17H40.8946V5.8ZM57.5875 17H56.2435V13.256C56.2435 12.9787 56.1795 12.7653 56.0515 12.616C55.9235 12.4667 55.6995 12.392 55.3795 12.392H51.8915V17H50.5475V5.8H54.5475C55.1235 5.8 55.6248 5.88533 56.0515 6.056C56.4782 6.216 56.8302 6.43467 57.1075 6.712C57.3955 6.98933 57.6088 7.31467 57.7475 7.688C57.8968 8.05067 57.9715 8.43467 57.9715 8.84V9.32C57.9715 9.736 57.8542 10.152 57.6195 10.568C57.3955 10.984 57.0435 11.304 56.5635 11.528V11.72C56.8835 11.7733 57.1342 11.9013 57.3155 12.104C57.4968 12.3067 57.5875 12.5947 57.5875 12.968V17ZM51.8915 11.144H54.3875C55.1448 11.144 55.7048 10.984 56.0675 10.664C56.4408 10.3333 56.6275 9.85333 56.6275 9.224V8.936C56.6275 8.37067 56.4408 7.91733 56.0675 7.576C55.7048 7.224 55.1448 7.048 54.3875 7.048H51.8915V11.144ZM60.5044 5.8H67.3844V7.048H61.8484V10.76H67.2884V12.008H61.8484V17H60.5044V5.8ZM69.7413 10.152C69.7413 8.70133 70.0879 7.576 70.7812 6.776C71.4746 5.976 72.4399 5.576 73.6773 5.576C74.9146 5.576 75.8799 5.976 76.5733 6.776C77.2666 7.576 77.6133 8.70133 77.6133 10.152V12.648C77.6133 14.1413 77.2666 15.2773 76.5733 16.056C75.8799 16.8347 74.9146 17.224 73.6773 17.224C72.4399 17.224 71.4746 16.8347 70.7812 16.056C70.0879 15.2773 69.7413 14.1413 69.7413 12.648V10.152ZM73.6773 15.976C74.5413 15.976 75.1866 15.6827 75.6133 15.096C76.0506 14.4987 76.2693 13.6507 76.2693 12.552V10.248C76.2693 9.224 76.0506 8.39733 75.6133 7.768C75.1866 7.13867 74.5413 6.824 73.6773 6.824C72.8133 6.824 72.1626 7.13867 71.7253 7.768C71.2986 8.39733 71.0853 9.224 71.0853 10.248V12.552C71.0853 13.6507 71.2986 14.4987 71.7253 15.096C72.1626 15.6827 72.8133 15.976 73.6773 15.976ZM86.9781 17H85.6341V13.256C85.6341 12.9787 85.5701 12.7653 85.4421 12.616C85.3141 12.4667 85.0901 12.392 84.7701 12.392H81.2821V17H79.9381V5.8H83.9381C84.5141 5.8 85.0155 5.88533 85.4421 6.056C85.8688 6.216 86.2208 6.43467 86.4981 6.712C86.7861 6.98933 86.9995 7.31467 87.1381 7.688C87.2875 8.05067 87.3621 8.43467 87.3621 8.84V9.32C87.3621 9.736 87.2448 10.152 87.0101 10.568C86.7861 10.984 86.4341 11.304 85.9541 11.528V11.72C86.2741 11.7733 86.5248 11.9013 86.7061 12.104C86.8875 12.3067 86.9781 12.5947 86.9781 12.968V17ZM81.2821 11.144H83.7781C84.5355 11.144 85.0955 10.984 85.4581 10.664C85.8315 10.3333 86.0181 9.85333 86.0181 9.224V8.936C86.0181 8.37067 85.8315 7.91733 85.4581 7.576C85.0955 7.224 84.5355 7.048 83.7781 7.048H81.2821V11.144ZM89.111 5.8H91.671L93.175 16.424H93.367L94.871 5.8H97.431V17H96.183V6.376H95.991L94.487 17H92.055L90.551 6.376H90.359V17H89.111V5.8ZM105.468 14.216H100.668L99.8519 17H98.4119L101.804 5.8H104.332L107.724 17H106.284L105.468 14.216ZM102.972 6.376L101.036 12.968H105.1L103.164 6.376H102.972ZM115.057 16.424H115.249V5.8H116.593V17H113.905L110.673 6.376H110.481V17H109.137V5.8H111.825L115.057 16.424ZM122.726 15.976C123.184 15.976 123.574 15.9013 123.894 15.752C124.224 15.592 124.491 15.384 124.694 15.128C124.907 14.8613 125.062 14.5627 125.158 14.232C125.264 13.8907 125.318 13.5333 125.318 13.16V12.968H126.662V13.16C126.662 13.7253 126.576 14.2587 126.406 14.76C126.235 15.2507 125.984 15.6827 125.654 16.056C125.323 16.4187 124.912 16.7067 124.422 16.92C123.931 17.1227 123.366 17.224 122.726 17.224C121.488 17.224 120.523 16.8347 119.83 16.056C119.136 15.2773 118.79 14.1413 118.79 12.648V10.152C118.79 8.70133 119.136 7.576 119.83 6.776C120.523 5.976 121.488 5.576 122.726 5.576C123.366 5.576 123.931 5.68267 124.422 5.896C124.912 6.09867 125.323 6.38667 125.654 6.76C125.984 7.12267 126.235 7.55467 126.406 8.056C126.576 8.54667 126.662 9.07467 126.662 9.64V9.832H125.318V9.64C125.307 9.27733 125.248 8.92533 125.142 8.584C125.046 8.24267 124.891 7.944 124.678 7.688C124.475 7.42133 124.214 7.21333 123.894 7.064C123.574 6.904 123.184 6.824 122.726 6.824C121.862 6.824 121.211 7.13867 120.774 7.768C120.347 8.39733 120.134 9.224 120.134 10.248V12.552C120.134 13.6507 120.347 14.4987 120.774 15.096C121.211 15.6827 121.862 15.976 122.726 15.976ZM129.067 5.8H135.851V7.048H130.411V10.76H135.755V12.008H130.411V15.752H135.947V17H129.067V5.8ZM139.855 12.264H144.655V13.416H139.855V12.264ZM148.116 10.152C148.116 8.70133 148.463 7.576 149.156 6.776C149.85 5.976 150.815 5.576 152.052 5.576C153.29 5.576 154.255 5.976 154.948 6.776C155.642 7.576 155.988 8.70133 155.988 10.152V12.648C155.988 14.1413 155.642 15.2773 154.948 16.056C154.255 16.8347 153.29 17.224 152.052 17.224C150.815 17.224 149.85 16.8347 149.156 16.056C148.463 15.2773 148.116 14.1413 148.116 12.648V10.152ZM152.052 15.976C152.916 15.976 153.562 15.6827 153.988 15.096C154.426 14.4987 154.644 13.6507 154.644 12.552V10.248C154.644 9.224 154.426 8.39733 153.988 7.768C153.562 7.13867 152.916 6.824 152.052 6.824C151.188 6.824 150.538 7.13867 150.1 7.768C149.674 8.39733 149.46 9.224 149.46 10.248V12.552C149.46 13.6507 149.674 14.4987 150.1 15.096C150.538 15.6827 151.188 15.976 152.052 15.976ZM159.657 12.392V17H158.313V5.8H162.313C162.889 5.8 163.39 5.88533 163.817 6.056C164.244 6.216 164.596 6.43467 164.873 6.712C165.161 6.98933 165.374 7.31467 165.513 7.688C165.662 8.05067 165.737 8.43467 165.737 8.84V9.32C165.737 9.72533 165.662 10.1147 165.513 10.488C165.374 10.8613 165.161 11.192 164.873 11.48C164.585 11.7573 164.228 11.9813 163.801 12.152C163.374 12.312 162.878 12.392 162.313 12.392H159.657ZM159.657 11.144H162.153C163.646 11.144 164.393 10.504 164.393 9.224V8.936C164.393 8.37067 164.206 7.91733 163.833 7.576C163.47 7.224 162.91 7.048 162.153 7.048H159.657V11.144ZM167.71 5.8H175.582V7.048H172.318V17H170.974V7.048H167.71V5.8ZM177.891 5.8H184.995V7.048H182.115V15.752H184.995V17H177.891V15.752H180.771V7.048H177.891V5.8ZM187.08 5.8H189.64L191.144 16.424H191.336L192.84 5.8H195.4V17H194.152V6.376H193.96L192.456 17H190.024L188.52 6.376H188.328V17H187.08V5.8ZM197.485 5.8H204.589V7.048H201.709V15.752H204.589V17H197.485V15.752H200.365V7.048H197.485V5.8ZM207.17 5.8H214.658V7.816L207.938 15.56V15.752H214.85V17H206.786V14.984L213.506 7.24V7.048H207.17V5.8ZM217.238 5.8H224.022V7.048H218.582V10.76H223.926V12.008H218.582V15.752H224.118V17H217.238V5.8ZM226.699 5.8H230.379C231.766 5.8 232.779 6.13067 233.419 6.792C234.059 7.45333 234.379 8.50933 234.379 9.96V12.84C234.379 14.2907 234.059 15.3467 233.419 16.008C232.779 16.6693 231.766 17 230.379 17H226.699V15.736H227.659V7.048H226.699V5.8ZM230.187 15.752C230.678 15.752 231.099 15.704 231.451 15.608C231.814 15.512 232.113 15.352 232.347 15.128C232.582 14.8933 232.753 14.584 232.859 14.2C232.977 13.816 233.035 13.3307 233.035 12.744V10.056C233.035 9.46933 232.977 8.984 232.859 8.6C232.753 8.216 232.582 7.912 232.347 7.688C232.113 7.45333 231.814 7.288 231.451 7.192C231.099 7.096 230.678 7.048 230.187 7.048H229.003V15.752H230.187Z" fill="#F5B380"></path></svg>

<svg xmlns="http://www.w3.org/2000/svg" width="246" height="23" fill="none"><rect width="246" height="23" fill="#032538" rx="5"/><path fill="#F5B380" d="M11.552 14.92v-1.344l6.208-2.08v-.192l-6.208-2.08V7.88l6.688 2.304v2.432l-6.688 2.304Zm20.746-2.528V17h-1.344V5.8h4c.576 0 1.077.085 1.504.256.426.16.778.379 1.056.656.288.277.501.603.64.976.15.363.224.747.224 1.152v.48c0 .405-.075.795-.224 1.168a2.738 2.738 0 0 1-.64.992 3.281 3.281 0 0 1-1.072.672c-.427.16-.923.24-1.488.24h-2.656Zm0-1.248h2.496c1.493 0 2.24-.64 2.24-1.92v-.288c0-.565-.187-1.019-.56-1.36-.363-.352-.923-.528-1.68-.528h-2.496v4.096ZM40.895 5.8h6.784v1.248h-5.44v3.712h5.344v1.248h-5.344v3.744h5.536V17h-6.88V5.8ZM57.587 17h-1.344v-3.744c0-.277-.064-.49-.192-.64-.128-.15-.352-.224-.672-.224h-3.487V17h-1.345V5.8h4c.577 0 1.078.085 1.505.256.426.16.778.379 1.056.656.288.277.5.603.64.976.149.363.224.747.224 1.152v.48c0 .416-.118.832-.352 1.248-.224.416-.576.736-1.056.96v.192c.32.053.57.181.752.384.18.203.271.49.271.864V17Zm-5.696-5.856h2.497c.757 0 1.317-.16 1.68-.48.373-.33.56-.81.56-1.44v-.288c0-.565-.187-1.019-.56-1.36-.363-.352-.923-.528-1.68-.528h-2.496v4.096ZM60.505 5.8h6.88v1.248h-5.536v3.712h5.44v1.248h-5.44V17h-1.344V5.8Zm9.237 4.352c0-1.45.347-2.576 1.04-3.376.694-.8 1.659-1.2 2.896-1.2 1.238 0 2.203.4 2.896 1.2.694.8 1.04 1.925 1.04 3.376v2.496c0 1.493-.346 2.63-1.04 3.408-.693.779-1.658 1.168-2.896 1.168-1.237 0-2.202-.39-2.896-1.168-.693-.779-1.04-1.915-1.04-3.408v-2.496Zm3.936 5.824c.864 0 1.51-.293 1.936-.88.438-.597.656-1.445.656-2.544v-2.304c0-1.024-.218-1.85-.656-2.48-.426-.63-1.072-.944-1.936-.944-.864 0-1.514.315-1.952.944-.426.63-.64 1.456-.64 2.48v2.304c0 1.099.214 1.947.64 2.544.438.587 1.088.88 1.952.88ZM86.978 17h-1.344v-3.744c0-.277-.064-.49-.192-.64-.128-.15-.352-.224-.672-.224h-3.488V17h-1.344V5.8h4c.576 0 1.078.085 1.504.256.427.16.779.379 1.056.656.288.277.501.603.64.976.15.363.224.747.224 1.152v.48c0 .416-.117.832-.352 1.248-.224.416-.576.736-1.056.96v.192c.32.053.57.181.752.384.181.203.272.49.272.864V17Zm-5.696-5.856h2.496c.757 0 1.317-.16 1.68-.48.374-.33.56-.81.56-1.44v-.288c0-.565-.186-1.019-.56-1.36-.362-.352-.922-.528-1.68-.528h-2.496v4.096ZM89.111 5.8h2.56l1.504 10.624h.192L94.871 5.8h2.56V17h-1.248V6.376h-.192L94.487 17h-2.432L90.551 6.376h-.192V17h-1.248V5.8Zm16.357 8.416h-4.8L99.852 17h-1.44l3.392-11.2h2.528l3.392 11.2h-1.44l-.816-2.784Zm-2.496-7.84-1.936 6.592h4.064l-1.936-6.592h-.192Zm12.085 10.048h.192V5.8h1.344V17h-2.688l-3.232-10.624h-.192V17h-1.344V5.8h2.688l3.232 10.624Zm7.669-.448c.458 0 .848-.075 1.168-.224.33-.16.597-.368.8-.624a2.57 2.57 0 0 0 .464-.896c.106-.341.16-.699.16-1.072v-.192h1.344v.192a4.95 4.95 0 0 1-.256 1.6c-.171.49-.422.923-.752 1.296-.331.363-.742.65-1.232.864-.491.203-1.056.304-1.696.304-1.238 0-2.203-.39-2.896-1.168-.694-.779-1.04-1.915-1.04-3.408v-2.496c0-1.45.346-2.576 1.04-3.376.693-.8 1.658-1.2 2.896-1.2.64 0 1.205.107 1.696.32.49.203.901.49 1.232.864.33.363.581.795.752 1.296.17.49.256 1.019.256 1.584v.192h-1.344V9.64a3.948 3.948 0 0 0-.176-1.056 2.397 2.397 0 0 0-.464-.896 2.063 2.063 0 0 0-.784-.624c-.32-.16-.71-.24-1.168-.24-.864 0-1.515.315-1.952.944-.427.63-.64 1.456-.64 2.48v2.304c0 1.099.213 1.947.64 2.544.437.587 1.088.88 1.952.88ZM129.067 5.8h6.784v1.248h-5.44v3.712h5.344v1.248h-5.344v3.744h5.536V17h-6.88V5.8Zm10.788 6.464h4.8v1.152h-4.8v-1.152Zm8.261-2.112c0-1.45.347-2.576 1.04-3.376.694-.8 1.659-1.2 2.896-1.2 1.238 0 2.203.4 2.896 1.2.694.8 1.04 1.925 1.04 3.376v2.496c0 1.493-.346 2.63-1.04 3.408-.693.779-1.658 1.168-2.896 1.168-1.237 0-2.202-.39-2.896-1.168-.693-.779-1.04-1.915-1.04-3.408v-2.496Zm3.936 5.824c.864 0 1.51-.293 1.936-.88.438-.597.656-1.445.656-2.544v-2.304c0-1.024-.218-1.85-.656-2.48-.426-.63-1.072-.944-1.936-.944-.864 0-1.514.315-1.952.944-.426.63-.64 1.456-.64 2.48v2.304c0 1.099.214 1.947.64 2.544.438.587 1.088.88 1.952.88Zm7.605-3.584V17h-1.344V5.8h4c.576 0 1.077.085 1.504.256.427.16.779.379 1.056.656.288.277.501.603.64.976.149.363.224.747.224 1.152v.48c0 .405-.075.795-.224 1.168a2.742 2.742 0 0 1-.64.992 3.277 3.277 0 0 1-1.072.672c-.427.16-.923.24-1.488.24h-2.656Zm0-1.248h2.496c1.493 0 2.24-.64 2.24-1.92v-.288c0-.565-.187-1.019-.56-1.36-.363-.352-.923-.528-1.68-.528h-2.496v4.096ZM167.71 5.8h7.872v1.248h-3.264V17h-1.344V7.048h-3.264V5.8Zm10.181 0h7.104v1.248h-2.88v8.704h2.88V17h-7.104v-1.248h2.88V7.048h-2.88V5.8Zm9.189 0h2.56l1.504 10.624h.192L192.84 5.8h2.56V17h-1.248V6.376h-.192L192.456 17h-2.432L188.52 6.376h-.192V17h-1.248V5.8Zm10.405 0h7.104v1.248h-2.88v8.704h2.88V17h-7.104v-1.248h2.88V7.048h-2.88V5.8Zm9.685 0h7.488v2.016l-6.72 7.744v.192h6.912V17h-8.064v-2.016l6.72-7.744v-.192h-6.336V5.8Zm10.068 0h6.784v1.248h-5.44v3.712h5.344v1.248h-5.344v3.744h5.536V17h-6.88V5.8Zm9.461 0h3.68c1.387 0 2.4.33 3.04.992.64.661.96 1.717.96 3.168v2.88c0 1.45-.32 2.507-.96 3.168-.64.661-1.653.992-3.04.992h-3.68v-1.264h.96V7.048h-.96V5.8Zm3.488 9.952c.491 0 .912-.048 1.264-.144.363-.096.662-.256.896-.48.235-.235.406-.544.512-.928.118-.384.176-.87.176-1.456v-2.688c0-.587-.058-1.072-.176-1.456-.106-.384-.277-.688-.512-.912a1.935 1.935 0 0 0-.896-.496 4.849 4.849 0 0 0-1.264-.144h-1.184v8.704h1.184Z"/></svg>
